cssgg/trending.svg

<svg
  width="24"
  height="24"
  viewBox="0 0 24 24"
  fill="none"
  xmlns="http://www.w3.org/2000/svg"
>
  <path
    d="M1.41421 16.4322L0 15.018L7.07107 7.94693L13.435 14.3109L17.6777 10.0682L15.9353 8.32587L22.6274 6.53271L20.8343 13.2248L19.0919 11.4825L13.435 17.1393L7.07107 10.7754L1.41421 16.4322Z"
    fill="currentColor"
  />
</svg>

<svg viewBox="0 0 24 24" xmlns="http://www.w3.org/2000/svg"><path d="M1.41 16.43l-1.42-1.42 7.07-7.08 6.36 6.36 4.24-4.25 -1.75-1.75 6.69-1.8 -1.8 6.69 -1.75-1.75 -5.66 5.65 -6.37-6.37 -5.66 5.65Z"/></svg>
